X: 29304
T: New Stove, The
R: jig
M: 6/8
K: Dmajor
A|"D"f2A "A"e2A|"D"ded dAF|"D/F#"DFA "F°/F"ded|"Em"B3 B2G|
"A"g2A "D"f2A|efe e2c|1 ABA BAG|"D"F3F2 A:|2 Aba gec|"D"d3 dFG||
"D"A3 AFD|A,DF A2F|DFA ded|"G"B3B2 G|
"A"g3 e3|cdc cBA|ABA BAG|"D"F3F2A|
"D"f3 "A"e3|"D"ded dAF|DFA ded|"G"B6|
"G"Bgg g2B|"D"Aff f2a|"A"gec ABc|"D"d3d2||

